X:19
T:12. Julie's Waltz
C:Larry Mallette
R:waltz
M:3/4
Q:240
L:1/8
K:G
"Waltz"
D2|G3A BA|G3g eB|d3e dB|A4D2|
G3A BA|G/B/d g2e2|1d2ed AB|G4:|2d2AB AB|G4||
G/A/B|c4ce|B4Bd|A3B AG|E4D2|
G3A BA|G/A/Bg2e2|1d2AB AB|G4:|2d2ed AB|G4|]





